X:1
T:Title
%%score { ( 1 4 ) | ( 2 3 ) }
L:1/8
Q:1/4=106
M:3/4
K:G
V:1 treble nm="Grand Piano"
V:4 treble 
V:2 bass 
V:3 bass 
V:1
 [B,D]2 [CE]2 [CF]2 | [B,G]3 [CF] [DG]2 | A2 G2 E2 | [CE]2 [B,D]2 z2 | [B,D]2 [CE]2 [DF]2 | %5
w: Robert~Lowry * *|||||
 [DG]3 [DA] [DB]2 | [^CA]2 [CE]2 [CA]2 | A4 D2 | D2 G2 A2 | B3 A G2 | [DFA]2 [DAc]2 [DGB]2 | %11
w: ||||||
 [DGB]2 [DFA]2 z2 | [DGB]2 [CFA]2 [B,G]2 | [CEA]2 [B,DG]2 [A,DF]2 | [B,DG]6- | [B,DG]4 z2 | d4 B2 | %17
w: ||||||
 d4 [GB][FA] | G2 E2 G2 | [FA]2 B4 | d4 B2 | d4 dd | e2 d2 [DGB]2 | [DFA]4 z2 | [DGB]4 [CFA]2 | %25
w: ||||||||
 [B,G]4 [B,G][B,G] | [CFA]2 [B,G]2 [DFA]2 | B2 d4 | e2 d2 [DGB]2 | [CFA]2 G2 A2 | G4 B2 | %31
w: ||||||
[M:4/4] [Ec]6 [EA]2 |[M:3/4] G2 F2 [B,DG]2 | [DGB]4 [CDA]2 | G4- [EG-]2 | [DG]6 |] %36
w: |||||
V:2
 [G,,G,]2 [G,,G,]2 [G,,D,]2 | [G,,D,]3 [A,,D,] [B,,G,]2 | [C,E,C]2 [C,E,C]2 [C,G,C]2 | %3
 [G,,G,]2 [G,,G,]2 z2 | [G,,G,]2 [G,,G,]2 [C,A,]2 | [B,,G,]3 [A,,F,] [G,,G,]2 | %6
 [A,,E,]2 [A,,A,]2 [A,,G,]2 | [D,F,D]4 [D,F,C]2 | [G,B,]2[K:treble] [G,B,D]2 [G,CD]2 | %9
 [G,DG]3 [G,CD] [G,B,D]2 | D,2 F,2 G,2 | D,2 D,2 z2 | G,2 D,2 E,2 | C,2 D,2 D,2 | G,,6- | G,,4 z2 | %16
 [G,B,G]4 [G,G]2 | [G,B,G]4[K:bass] [D,D][D,C] | [E,B,E]2 [E,G,]2 [E,B,E]2 | %19
 [D,D]2[K:treble] [G,DG]4 | [G,B,G]4 [G,G]2 | [G,B,G]4 [G,B,G][G,B,G] | [G,G]4[K:bass] z2 | %23
 D,4 z2 | G,4 D,2 | E,4 E,E, | D,2 D,2 D,2 | [G,DG]2 [G,B,G]4 | [G,G]4 z2 | z2 B,2 [D,CD]2 | %30
 [G,B,D]4 [G,=F]2 |[M:4/4][K:bass] [C,G,]6 [C,C]2 |[M:3/4] [D,D]4 z2 | D,4 D,2 | z2 z2 C2 | B,6 |] %36
V:3
 x6 | x6 | x6 | x6 | x6 | x6 | x6 | x6 | x2[K:treble] x4 | x6 | x6 | x6 | x6 | x6 | x6 | x6 | x6 | %17
 x4[K:bass] x2 | x6 | x2[K:treble] x4 | x6 | x6 | C2[K:bass] B,2 G,2 | x6 | x6 | x6 | x6 | x6 | %28
 C2 B,2 G,2 | D,4 z2 | x6 |[M:4/4][K:bass] x8 |[M:3/4] B,2 A,2 D,2 | x6 | G,,6- | G,,6 |] %36
V:4
 x6 | x6 | x6 | x6 | x6 | x6 | x6 | x6 | x6 | x6 | x6 | x6 | x6 | x6 | x6 | x6 | x6 | x6 | x6 | %19
 x6 | x6 | x6 | x6 | x6 | x6 | x6 | x6 | x6 | x6 | x6 | x6 |[M:4/4] x8 |[M:3/4] x6 | x6 | %34
 [B,D]4 z2 | x6 |] %36

